X: 29080
T: Neilidh O'Boyle's
R: strathspey
M: 4/4
K: Gmajor
B<dd>f e>fg>e|d>e (3dcB A2 A>c|B<dd>f e>fg>e|d>BA>c B<GG>c:|
B>dg>b (3agf g2|B>dg>b a<A A>c|B>dg>b (3agf g>e|d>BA>c B<GG>c|
B>dg>b (3agf g2|B>dg>b a2 g>a|b>ga>f g>ag>e|d>BA>c B<GG>c||

